usr/share/icons/biglinux-icons-material-dark/22/actions/kstars_solarsystem.svg

<svg xmlns="http://www.w3.org/2000/svg" viewBox="0 0 22 22">
<defs id="defs3051">
<style id="current-color-scheme" type="text/css">
.ColorScheme-Text{color:#dedede}
</style>
</defs>
<path d="M11 3a8 8 0 0 0-8 8 8 8 0 0 0 1.385 4.498 1.5 1.5 0 0 0-.184.252 1.5 1.5 0 0 0 .549 2.049 1.5 1.5 0 0 0 1.758-.19A8 8 0 0 0 11 19a8 8 0 0 0 8-8 8 8 0 0 0-8-8m0 1a7 7 0 0 1 7 7 7 7 0 0 1-7 7 7 7 0 0 1-4.018-1.271A1.5 1.5 0 0 0 6.25 15.2a1.5 1.5 0 0 0-.973-.185A7 7 0 0 1 4 11a7 7 0 0 1 7-7m0 2a5 5 0 0 0-5 5 5 5 0 0 0 5 5 5 5 0 0 0 3.072-1.062 1.5 1.5 0 0 0 1.727-.688 1.5 1.5 0 0 0-.078-1.62A5 5 0 0 0 16 11a5 5 0 0 0-5-5m0 1a4 4 0 0 1 4 4 4 4 0 0 1-.143 1.043 1.5 1.5 0 0 0-1.656.707 1.5 1.5 0 0 0 .037 1.56A4 4 0 0 1 11 15a4 4 0 0 1-4-4 4 4 0 0 1 4-4m0 2a2 2 0 0 0-2 2 2 2 0 0 0 2 2 2 2 0 0 0 2-2 2 2 0 0 0-2-2" class="ColorScheme-Text" style="fill:currentColor;fill-opacity:1;stroke:none"/>
</svg>

<svg xmlns="http://www.w3.org/2000/svg" viewBox="0 0 22 22">
  <defs id="defs3051">
    <style type="text/css" id="current-color-scheme">
      .ColorScheme-Text {
        color:#dedede;
      }
      </style>
  </defs>
 <path 
     style="fill:currentColor;fill-opacity:1;stroke:none" 
     d="M 11 3 A 8 8 0 0 0 3 11 A 8 8 0 0 0 4.3847656 15.498047 A 1.5 1.5 0 0 0 4.2011719 15.75 A 1.5 1.5 0 0 0 4.75 17.798828 A 1.5 1.5 0 0 0 6.5078125 17.609375 A 8 8 0 0 0 11 19 A 8 8 0 0 0 19 11 A 8 8 0 0 0 11 3 z M 11 4 A 7 7 0 0 1 18 11 A 7 7 0 0 1 11 18 A 7 7 0 0 1 6.9824219 16.728516 A 1.5 1.5 0 0 0 6.25 15.201172 A 1.5 1.5 0 0 0 5.2773438 15.015625 A 7 7 0 0 1 4 11 A 7 7 0 0 1 11 4 z M 11 6 A 5 5 0 0 0 6 11 A 5 5 0 0 0 11 16 A 5 5 0 0 0 14.072266 14.9375 A 1.5 1.5 0 0 0 15.798828 14.25 A 1.5 1.5 0 0 0 15.720703 12.630859 A 5 5 0 0 0 16 11 A 5 5 0 0 0 11 6 z M 11 7 A 4 4 0 0 1 15 11 A 4 4 0 0 1 14.857422 12.042969 A 1.5 1.5 0 0 0 13.201172 12.75 A 1.5 1.5 0 0 0 13.238281 14.310547 A 4 4 0 0 1 11 15 A 4 4 0 0 1 7 11 A 4 4 0 0 1 11 7 z M 11 9 A 2 2 0 0 0 9 11 A 2 2 0 0 0 11 13 A 2 2 0 0 0 13 11 A 2 2 0 0 0 11 9 z "
     class="ColorScheme-Text"
     />
</svg>
